X:11
T:Halting march, The
R:march
Z:hn-march-11
M:2/4
L:1/8
K:Ador
A2 B/c/d|e e2 d|e>d ef|ec A2|G2 A/B/c|d d2 e|dB GB|d2 cB|
A2 B/c/d|e e2 d|e>d ef|ec A2|a g2 e|d c2 B|A>B AG|1 A3G:|2 A3e||
a a2 g|e d2 e|g>a ge|dB G2|a a2 g|e d2 e|g>a ge|g2 a/g/e/g/|
a a2 g|e d2 e|g>a ge|dB G2|A>B cd|e>d cB|A>B cd|e2 e2|
a a2 g|e d2 e|g>a ge|dB G2|A>B cd|e>d cB|A>B AG|A3G||
<end>
<start>
